src/2-landmarks/line--wait.svg

<svg width="1300" height="1000" fill="none" xmlns="http://www.w3.org/2000/svg"><path fill-rule="evenodd" clip-rule="evenodd" d="M696.372 335.821c-3.631 1.731-10.598 2.844-12.433 3.009 0 0-8.275.655-13.252-.762-5.609-1.596-8.809-3.353-12.863-7.482-2.744-2.794-5.138-7.804-6.247-10.348-.455-1.043-.801-2.126-1.088-3.227l-6.182-23.706s-.797-3.436-.985-5.678c-.447-5.332.002-8.525 1.74-13.601 1.784-5.214 3.494-8.07 7.238-12.161 3.99-4.361 6.965-6.374 12.42-8.741 4.235-1.838 6.858-2.515 11.462-2.955 4.958-.266 6.827-.117 11.673.931 4.86 1.158 9.925 3.522 13.877 6.44 3.952 2.918 6.856 6.528 9.24 10.719 2.384 4.192 3.657 8.328 4.076 13.093.156 1.797.145 3.961.015 5.762l-2.768 24.167a24.201 24.201 0 0 1-.693 3.691c-.794 2.874-2.478 8.425-4.349 11.251-2.593 3.917-6.536 7.528-10.881 9.598Zm-3.033-6.459c-2.921 1.446-8.532 2.362-10.01 2.495 0 0-6.667.524-10.682-.685-4.524-1.362-7.109-2.853-10.389-6.344-2.157-2.295-4.055-6.351-4.988-8.549-.427-1.006-.748-2.048-1.016-3.107l-5.009-19.794s-.654-2.897-.812-4.786c-.378-4.494-.026-7.182 1.358-11.453 1.421-4.386 2.79-6.787 5.794-10.221 3.201-3.661 5.592-5.347 9.98-7.323 3.407-1.535 5.519-2.096 9.227-2.453 3.995-.208 5.501-.076 9.41.822 3.92.992 8.009 2.999 11.203 5.47 3.194 2.471 5.546 5.522 7.481 9.06 1.934 3.539 2.973 7.027 3.326 11.043.132 1.514.13 3.337.031 4.854l-2.128 20.124a23.629 23.629 0 0 1-.63 3.555c-.651 2.473-1.955 6.938-3.409 9.242-2.078 3.291-5.243 6.32-8.737 8.05Z" fill="#000"/><path fill-rule="evenodd" clip-rule="evenodd" d="M751.09 881.232 737 875l1-158s-11.065-146-11.5-157c-3.5-88.5-15.5-196-18-202.501C706 350.998 701.5 341 690 340c-36.872-3.205-55.624 19.5-69 47-17.528 36.035-29 130-29 130l10 61.5 13.841 32.65A21.896 21.896 0 0 0 636 624.5l2.5 119-16.748 134.464A6.339 6.339 0 0 0 627 885v15h7.5v-23.023a4.88 4.88 0 0 1-4.846-5.46L645 743.413l-2-115.583-8.882-109.595a7.506 7.506 0 0 1 .319-2.853l29.779-95.157a1.928 1.928 0 0 0-3.663-1.201L627 516.777l5 60.034 3.427 39.187a.768.768 0 0 1-.765.835 15.358 15.358 0 0 1-14.135-9.353L607.5 576.811l-9.5-60.034s14.321-102.354 32.999-136.561c15.466-28.324 37.862-33.891 51.368-34.387 7.516-.276 15.416 2.878 17.799 10.012 5.749 17.21 13.932 66.148 17.334 204.46L688 878.977l19.974 7.965a9.999 9.999 0 0 1 6.264 10.087L714 900h7H0v100h1300V900h-162 7v-.477a20 20 0 0 0-11.91-18.291L1119 875l1-158s-11.06-146-11.5-157c-3.5-88.5-15.5-196-18-202.501-2.5-6.501-7-16.499-18.5-17.499-36.87-3.205-55.62 19.5-69 47-17.528 36.035-29 130-29 130l10 61.5 13.841 32.65A21.894 21.894 0 0 0 1018 624.5l2.5 119-16.75 134.464A6.343 6.343 0 0 0 1009 885v15h7.5v-23.023c-2.93 0-5.19-2.556-4.85-5.46L1027 743.413l-2-115.583-8.88-109.595c-.08-.963.03-1.932.32-2.853l29.78-95.157c.38-1.241-.54-2.503-1.84-2.503-.83 0-1.56.523-1.83 1.302L1009 516.777l5 60.034 3.43 39.187a.772.772 0 0 1-.77.835c-6.16 0-11.72-3.682-14.13-9.353l-13.03-30.669-9.5-60.034s14.321-102.354 33-136.561c15.47-28.324 37.86-33.891 51.37-34.387 7.51-.276 15.41 2.878 17.8 10.012 5.74 17.21 13.93 66.148 17.33 204.46L1070 878.977l19.97 7.965a9.997 9.997 0 0 1 6.27 10.087L1096 900h7-156 7v-.477a20 20 0 0 0-11.91-18.291L928 875l1-158s-11.065-146-11.5-157c-3.5-88.5-15.5-196-18-202.501C897 350.998 892.5 341 881 340c-36.872-3.205-55.624 19.5-69 47-17.528 36.035-29 130-29 130l10 61.5 13.841 32.65A21.896 21.896 0 0 0 827 624.5l2.5 119-16.748 134.464A6.339 6.339 0 0 0 818 885v15h7.5v-23.023a4.88 4.88 0 0 1-4.846-5.46L836 743.413l-2-115.583-8.882-109.595a7.506 7.506 0 0 1 .319-2.853l29.779-95.157a1.928 1.928 0 0 0-3.663-1.201L818 516.777l5 60.034 3.427 39.187a.768.768 0 0 1-.765.835 15.358 15.358 0 0 1-14.135-9.353L798.5 576.811l-9.5-60.034s14.321-102.354 32.999-136.561c15.466-28.324 37.862-33.891 51.368-34.387 7.516-.276 15.416 2.878 17.799 10.012 5.749 17.21 13.932 66.148 17.334 204.46L879 878.977l19.974 7.965a9.999 9.999 0 0 1 6.264 10.087L905 900h7-156 7v-.477a20 20 0 0 0-11.91-18.291ZM912 900h35l-1.013-5.571a10 10 0 0 0-6.106-7.489l-19.881-8L922 717l-9-140-12 140-14.5 158 15.571 6.038a15 15 0 0 1 9.546 13.019L912 900Zm191 0h35l-1.01-5.571a10.01 10.01 0 0 0-6.11-7.489l-19.88-8 2-161.94-9-140-12 140-14.5 158 15.57 6.038a15.002 15.002 0 0 1 9.55 13.019L1103 900Zm-347 0h-35l-.383-5.943a15 15 0 0 0-9.546-13.019L695.5 875 710 717l12-140 9 140-2 161.94 19.881 8a10 10 0 0 1 6.106 7.489L756 900Z" fill="#000"/><path fill-rule="evenodd" clip-rule="evenodd" d="M874.939 338.83c1.835-.165 8.802-1.278 12.433-3.009 4.345-2.07 8.288-5.681 10.881-9.598 1.871-2.826 3.555-8.377 4.349-11.251.333-1.209.551-2.445.693-3.691l2.768-24.167c.13-1.801.141-3.965-.015-5.762-.419-4.765-1.692-8.901-4.076-13.093-2.384-4.191-5.288-7.801-9.24-10.719-3.952-2.918-9.017-5.282-13.877-6.44-4.846-1.048-6.714-1.197-11.673-.931-4.604.44-7.227 1.117-11.462 2.955-5.455 2.367-8.43 4.38-12.42 8.741-3.744 4.091-5.454 6.947-7.238 12.161-1.738 5.076-2.187 8.269-1.74 13.601.188 2.242.985 5.678.985 5.678l6.182 23.706c.287 1.101.633 2.184 1.088 3.227 1.109 2.544 3.503 7.554 6.247 10.348 4.054 4.129 7.254 5.886 12.863 7.482 4.977 1.417 13.252.762 13.252.762Zm-.61-6.973c1.478-.133 7.089-1.049 10.01-2.495 3.494-1.73 6.659-4.759 8.737-8.05 1.454-2.304 2.758-6.769 3.409-9.242.308-1.166.503-2.355.63-3.555l2.128-20.124c.099-1.517.101-3.34-.031-4.854-.353-4.016-1.391-7.504-3.326-11.043-1.935-3.538-4.287-6.589-7.481-9.06s-7.283-4.478-11.203-5.47c-3.909-.898-5.415-1.03-9.41-.822-3.708.357-5.82.918-9.227 2.453-4.388 1.976-6.779 3.662-9.981 7.323-3.003 3.434-4.372 5.835-5.793 10.221-1.384 4.271-1.736 6.959-1.358 11.453.158 1.889.812 4.786.812 4.786l5.009 19.794c.268 1.059.589 2.101 1.016 3.107.933 2.198 2.831 6.254 4.988 8.549 3.28 3.491 5.865 4.982 10.389 6.344 4.015 1.209 10.682.685 10.682.685Zm191.611 6.973c1.83-.165 8.8-1.278 12.43-3.009 4.35-2.07 8.29-5.681 10.88-9.598 1.87-2.826 3.56-8.377 4.35-11.251.34-1.209.55-2.445.7-3.691l2.76-24.167c.13-1.801.14-3.965-.01-5.762-.42-4.765-1.69-8.901-4.08-13.093-2.38-4.191-5.29-7.801-9.24-10.719-3.95-2.918-9.01-5.282-13.88-6.44-4.84-1.048-6.71-1.197-11.67-.931-4.6.44-7.22 1.117-11.46 2.955-5.45 2.367-8.43 4.38-12.42 8.741-3.74 4.091-5.45 6.947-7.24 12.161-1.74 5.076-2.19 8.269-1.74 13.601.19 2.242.99 5.678.99 5.678l6.18 23.706c.29 1.101.63 2.184 1.09 3.227 1.11 2.544 3.5 7.554 6.24 10.348 4.06 4.129 7.26 5.886 12.87 7.482 4.97 1.417 13.25.762 13.25.762Zm-.61-6.973c1.48-.133 7.09-1.049 10.01-2.495 3.49-1.73 6.66-4.759 8.74-8.05 1.45-2.304 2.75-6.769 3.41-9.242.3-1.166.5-2.355.62-3.555l2.13-20.124c.1-1.517.1-3.34-.03-4.854-.35-4.016-1.39-7.504-3.32-11.043-1.94-3.538-4.29-6.589-7.48-9.06-3.2-2.471-7.29-4.478-11.21-5.47-3.91-.898-5.41-1.03-9.41-.822-3.71.357-5.82.918-9.22 2.453-4.39 1.976-6.78 3.662-9.99 7.323-3 3.434-4.37 5.835-5.79 10.221-1.38 4.271-1.73 6.959-1.36 11.453.16 1.889.81 4.786.81 4.786l5.01 19.794c.27 1.059.59 2.101 1.02 3.107.93 2.198 2.83 6.254 4.99 8.549 3.28 3.491 5.86 4.982 10.39 6.344 4.01 1.209 10.68.685 10.68.685Z" fill="#000"/></svg>

<svg width="1300" height="1000" viewBox="0 0 1300 1000" fill="none" xmlns="http://www.w3.org/2000/svg">
<path fill-rule="evenodd" clip-rule="evenodd" d="M696.372 335.821C692.741 337.552 685.774 338.665 683.939 338.83C683.939 338.83 675.664 339.485 670.687 338.068C665.078 336.472 661.878 334.715 657.824 330.586C655.08 327.792 652.686 322.782 651.577 320.238C651.122 319.195 650.776 318.112 650.489 317.011L644.307 293.305C644.307 293.305 643.51 289.869 643.322 287.627C642.875 282.295 643.324 279.102 645.062 274.026C646.846 268.812 648.556 265.956 652.3 261.865C656.29 257.504 659.265 255.491 664.72 253.124C668.955 251.286 671.578 250.609 676.182 250.169C681.14 249.903 683.009 250.052 687.855 251.1C692.715 252.258 697.78 254.622 701.732 257.54C705.684 260.458 708.588 264.068 710.972 268.259C713.356 272.451 714.629 276.587 715.048 281.352C715.204 283.149 715.193 285.313 715.063 287.114L712.295 311.281C712.153 312.527 711.935 313.763 711.602 314.972C710.808 317.846 709.124 323.397 707.253 326.223C704.66 330.14 700.717 333.751 696.372 335.821ZM693.339 329.362C690.418 330.808 684.807 331.724 683.329 331.857C683.329 331.857 676.662 332.381 672.647 331.172C668.123 329.81 665.538 328.319 662.258 324.828C660.101 322.533 658.203 318.477 657.27 316.279C656.843 315.273 656.522 314.231 656.254 313.172L651.245 293.378C651.245 293.378 650.591 290.481 650.433 288.592C650.055 284.098 650.407 281.41 651.791 277.139C653.212 272.753 654.581 270.352 657.585 266.918C660.786 263.257 663.177 261.571 667.565 259.595C670.972 258.06 673.084 257.499 676.792 257.142C680.787 256.934 682.293 257.066 686.202 257.964C690.122 258.956 694.211 260.963 697.405 263.434C700.599 265.905 702.951 268.956 704.886 272.494C706.82 276.033 707.859 279.521 708.212 283.537C708.344 285.051 708.342 286.874 708.243 288.391L706.115 308.515C705.988 309.715 705.793 310.904 705.485 312.07C704.834 314.543 703.53 319.008 702.076 321.312C699.998 324.603 696.833 327.632 693.339 329.362Z" fill="black"/>
<path fill-rule="evenodd" clip-rule="evenodd" d="M751.09 881.232L737 875L738 717C738 717 726.935 571 726.5 560C723 471.5 711 364 708.5 357.499C706 350.998 701.5 341 690 340C653.128 336.795 634.376 359.5 621 387C603.472 423.035 592 517 592 517L602 578.5L615.841 611.15C619.272 619.243 627.21 624.5 636 624.5L638.5 743.5L621.752 877.964C621.332 881.337 623.647 884.441 627 885V900L634.5 900V876.977C631.574 876.977 629.306 874.421 629.654 871.517L645 743.413L643 627.83L634.118 518.235C634.04 517.272 634.148 516.303 634.437 515.382L664.216 420.225C664.604 418.984 663.677 417.722 662.376 417.722C661.553 417.722 660.82 418.245 660.553 419.024L627 516.777L632 576.811L635.427 615.998C635.466 616.447 635.113 616.833 634.662 616.833C628.501 616.833 622.936 613.151 620.527 607.48L607.5 576.811L598 516.777C598 516.777 612.321 414.423 630.999 380.216C646.465 351.892 668.861 346.325 682.367 345.829C689.883 345.553 697.783 348.707 700.166 355.841C705.915 373.051 714.098 421.989 717.5 560.301L688 878.977L707.974 886.942C712.048 888.566 714.589 892.657 714.238 897.029L714 900L721 900L0 900V1000H1300V900L1138 900L1145 900V899.523C1145 891.606 1140.33 884.434 1133.09 881.232L1119 875L1120 717C1120 717 1108.94 571 1108.5 560C1105 471.5 1093 364 1090.5 357.499C1088 350.998 1083.5 341 1072 340C1035.13 336.795 1016.38 359.5 1003 387C985.472 423.035 974 517 974 517L984 578.5L997.841 611.15C1001.27 619.243 1009.21 624.5 1018 624.5L1020.5 743.5L1003.75 877.964C1003.33 881.337 1005.65 884.441 1009 885V900L1016.5 900V876.977C1013.57 876.977 1011.31 874.421 1011.65 871.517L1027 743.413L1025 627.83L1016.12 518.235C1016.04 517.272 1016.15 516.303 1016.44 515.382L1046.22 420.225C1046.6 418.984 1045.68 417.722 1044.38 417.722C1043.55 417.722 1042.82 418.245 1042.55 419.024L1009 516.777L1014 576.811L1017.43 615.998C1017.47 616.447 1017.11 616.833 1016.66 616.833C1010.5 616.833 1004.94 613.151 1002.53 607.48L989.5 576.811L980 516.777C980 516.777 994.321 414.423 1013 380.216C1028.47 351.892 1050.86 346.325 1064.37 345.829C1071.88 345.553 1079.78 348.707 1082.17 355.841C1087.91 373.051 1096.1 421.989 1099.5 560.301L1070 878.977L1089.97 886.942C1094.05 888.566 1096.59 892.657 1096.24 897.029L1096 900L1103 900H947L954 900V899.523C954 891.606 949.33 884.434 942.09 881.232L928 875L929 717C929 717 917.935 571 917.5 560C914 471.5 902 364 899.5 357.499C897 350.998 892.5 341 881 340C844.128 336.795 825.376 359.5 812 387C794.472 423.035 783 517 783 517L793 578.5L806.841 611.15C810.272 619.243 818.21 624.5 827 624.5L829.5 743.5L812.752 877.964C812.332 881.337 814.647 884.441 818 885V900L825.5 900V876.977C822.574 876.977 820.306 874.421 820.654 871.517L836 743.413L834 627.83L825.118 518.235C825.04 517.272 825.148 516.303 825.437 515.382L855.216 420.225C855.604 418.984 854.677 417.722 853.376 417.722C852.553 417.722 851.82 418.245 851.553 419.024L818 516.777L823 576.811L826.427 615.998C826.466 616.447 826.113 616.833 825.662 616.833C819.501 616.833 813.936 613.151 811.527 607.48L798.5 576.811L789 516.777C789 516.777 803.321 414.423 821.999 380.216C837.465 351.892 859.861 346.325 873.367 345.829C880.883 345.553 888.783 348.707 891.166 355.841C896.915 373.051 905.098 421.989 908.5 560.301L879 878.977L898.974 886.942C903.048 888.566 905.589 892.657 905.238 897.029L905 900L912 900H756L763 900V899.523C763 891.606 758.33 884.434 751.09 881.232ZM912 900H947L945.987 894.429C945.373 891.05 943.067 888.222 939.881 886.94L920 878.94L922 717L913 577L901 717L886.5 875L902.071 881.038C907.516 883.149 911.241 888.229 911.617 894.057L912 900ZM1103 900H1138L1136.99 894.429C1136.37 891.05 1134.07 888.222 1130.88 886.94L1111 878.94L1113 717L1104 577L1092 717L1077.5 875L1093.07 881.038C1098.52 883.149 1102.24 888.229 1102.62 894.057L1103 900ZM756 900H721L720.617 894.057C720.241 888.229 716.516 883.149 711.071 881.038L695.5 875L710 717L722 577L731 717L729 878.94L748.881 886.94C752.067 888.222 754.373 891.05 754.987 894.429L756 900Z" fill="black"/>
<path fill-rule="evenodd" clip-rule="evenodd" d="M874.939 338.83C876.774 338.665 883.741 337.552 887.372 335.821C891.717 333.751 895.66 330.14 898.253 326.223C900.124 323.397 901.808 317.846 902.602 314.972C902.935 313.763 903.153 312.527 903.295 311.281L906.063 287.114C906.193 285.313 906.204 283.149 906.048 281.352C905.629 276.587 904.356 272.451 901.972 268.259C899.588 264.068 896.684 260.458 892.732 257.54C888.78 254.622 883.715 252.258 878.855 251.1C874.009 250.052 872.141 249.903 867.182 250.169C862.578 250.609 859.955 251.286 855.72 253.124C850.265 255.491 847.29 257.504 843.3 261.865C839.556 265.956 837.846 268.812 836.062 274.026C834.324 279.102 833.875 282.295 834.322 287.627C834.51 289.869 835.307 293.305 835.307 293.305L841.489 317.011C841.776 318.112 842.122 319.195 842.577 320.238C843.686 322.782 846.08 327.792 848.824 330.586C852.878 334.715 856.078 336.472 861.687 338.068C866.664 339.485 874.939 338.83 874.939 338.83ZM874.329 331.857C875.807 331.724 881.418 330.808 884.339 329.362C887.833 327.632 890.998 324.603 893.076 321.312C894.53 319.008 895.834 314.543 896.485 312.07C896.793 310.904 896.988 309.715 897.115 308.515L899.243 288.391C899.342 286.874 899.344 285.051 899.212 283.537C898.859 279.521 897.821 276.033 895.886 272.494C893.951 268.956 891.599 265.905 888.405 263.434C885.211 260.963 881.122 258.956 877.202 257.964C873.293 257.066 871.787 256.934 867.792 257.142C864.084 257.499 861.972 258.06 858.565 259.595C854.177 261.571 851.786 263.257 848.584 266.918C845.581 270.352 844.212 272.753 842.791 277.139C841.407 281.41 841.055 284.098 841.433 288.592C841.591 290.481 842.245 293.378 842.245 293.378L847.254 313.172C847.522 314.231 847.843 315.273 848.27 316.279C849.203 318.477 851.101 322.533 853.258 324.828C856.538 328.319 859.123 329.81 863.647 331.172C867.662 332.381 874.329 331.857 874.329 331.857Z" fill="black"/>
<path fill-rule="evenodd" clip-rule="evenodd" d="M1065.94 338.83C1067.77 338.665 1074.74 337.552 1078.37 335.821C1082.72 333.751 1086.66 330.14 1089.25 326.223C1091.12 323.397 1092.81 317.846 1093.6 314.972C1093.94 313.763 1094.15 312.527 1094.3 311.281L1097.06 287.114C1097.19 285.313 1097.2 283.149 1097.05 281.352C1096.63 276.587 1095.36 272.451 1092.97 268.259C1090.59 264.068 1087.68 260.458 1083.73 257.54C1079.78 254.622 1074.72 252.258 1069.85 251.1C1065.01 250.052 1063.14 249.903 1058.18 250.169C1053.58 250.609 1050.96 251.286 1046.72 253.124C1041.27 255.491 1038.29 257.504 1034.3 261.865C1030.56 265.956 1028.85 268.812 1027.06 274.026C1025.32 279.102 1024.87 282.295 1025.32 287.627C1025.51 289.869 1026.31 293.305 1026.31 293.305L1032.49 317.011C1032.78 318.112 1033.12 319.195 1033.58 320.238C1034.69 322.782 1037.08 327.792 1039.82 330.586C1043.88 334.715 1047.08 336.472 1052.69 338.068C1057.66 339.485 1065.94 338.83 1065.94 338.83ZM1065.33 331.857C1066.81 331.724 1072.42 330.808 1075.34 329.362C1078.83 327.632 1082 324.603 1084.08 321.312C1085.53 319.008 1086.83 314.543 1087.49 312.07C1087.79 310.904 1087.99 309.715 1088.11 308.515L1090.24 288.391C1090.34 286.874 1090.34 285.051 1090.21 283.537C1089.86 279.521 1088.82 276.033 1086.89 272.494C1084.95 268.956 1082.6 265.905 1079.41 263.434C1076.21 260.963 1072.12 258.956 1068.2 257.964C1064.29 257.066 1062.79 256.934 1058.79 257.142C1055.08 257.499 1052.97 258.06 1049.57 259.595C1045.18 261.571 1042.79 263.257 1039.58 266.918C1036.58 270.352 1035.21 272.753 1033.79 277.139C1032.41 281.41 1032.06 284.098 1032.43 288.592C1032.59 290.481 1033.24 293.378 1033.24 293.378L1038.25 313.172C1038.52 314.231 1038.84 315.273 1039.27 316.279C1040.2 318.477 1042.1 322.533 1044.26 324.828C1047.54 328.319 1050.12 329.81 1054.65 331.172C1058.66 332.381 1065.33 331.857 1065.33 331.857Z" fill="black"/>
</svg>
